startshape ASS
CF::Background = [hue 0 sat 0 b 0.98 alpha -1]

shape ASS {
	AS [ b 0.75 ]
	AS [ b 0.5 z 1]
	AS [ z 2 ]
}

shape AS {
	A []
	AS [ r 222 s 0.985]
}


shape A 
rule .01 { A [s 0.8]}
rule .1 { A [r 5 ] }
rule .1 { A [r -5 ] }
rule 
{
	CIRCLE [ b 0.92 ]
	A [ x 0.1 s 0.997 ]
}